icons/evolvere-blue-folders-flat-vivid-dark-fallback/apps/64/frostwire.svg

<?xml version="1.0" encoding="UTF-8" standalone="no"?>
<!-- Created with Inkscape (http://www.inkscape.org/) -->

<svg
   xmlns:dc="http://purl.org/dc/elements/1.1/"
   xmlns:cc="http://creativecommons.org/ns#"
   xmlns:rdf="http://www.w3.org/1999/02/22-rdf-syntax-ns#"
   xmlns:svg="http://www.w3.org/2000/svg"
   xmlns="http://www.w3.org/2000/svg"
   xmlns:sodipodi="http://sodipodi.sourceforge.net/DTD/sodipodi-0.dtd"
   xmlns:inkscape="http://www.inkscape.org/namespaces/inkscape"
   width="64"
   height="64"
   id="svg13094"
   version="1.1"
   inkscape:version="0.91+devel r"
   sodipodi:docname="frostwire.svg">
  <sodipodi:namedview
     id="base"
     pagecolor="#ffffff"
     bordercolor="#666666"
     borderopacity="1.0"
     inkscape:pageopacity="0"
     inkscape:pageshadow="2"
     inkscape:zoom="11.313709"
     inkscape:cx="33.117517"
     inkscape:cy="31.250136"
     inkscape:document-units="px"
     inkscape:current-layer="svg13094"
     showgrid="true"
     inkscape:snap-bbox="true"
     inkscape:bbox-paths="true"
     inkscape:bbox-nodes="true"
     inkscape:snap-bbox-edge-midpoints="true"
     inkscape:snap-bbox-midpoints="true"
     inkscape:object-paths="true"
     inkscape:snap-intersection-paths="true"
     inkscape:object-nodes="true"
     inkscape:snap-smooth-nodes="true"
     inkscape:snap-midpoints="true"
     inkscape:snap-object-midpoints="true"
     inkscape:snap-center="true"
     showguides="true"
     inkscape:guide-bbox="true"
     inkscape:window-width="1920"
     inkscape:window-height="1023"
     inkscape:window-x="-10"
     inkscape:window-y="35"
     inkscape:window-maximized="1"
     inkscape:snap-global="true"
     fit-margin-top="0"
     fit-margin-left="0"
     fit-margin-right="0"
     fit-margin-bottom="0"
     showborder="true"
     inkscape:showpageshadow="false"
     inkscape:snap-page="true">
    <inkscape:grid
       type="xygrid"
       id="grid3075"
       empspacing="5"
       visible="true"
       enabled="true"
       snapvisiblegridlinesonly="true"
       originx="1.6362304e-08px"
       originy="18px" />
  </sodipodi:namedview>
  <defs
     id="defs13096" />
  <metadata
     id="metadata13099">
    <rdf:RDF>
      <cc:Work
         rdf:about="">
        <dc:format>image/svg+xml</dc:format>
        <dc:type
           rdf:resource="http://purl.org/dc/dcmitype/StillImage" />
        <dc:title></dc:title>
      </cc:Work>
    </rdf:RDF>
  </metadata>
  <path
     style="color:#000000;fill:#27a4ee;fill-opacity:1;fill-rule:nonzero;stroke:none;stroke-width:2.28571415;marker:none;visibility:visible;display:inline;overflow:visible;enable-background:accumulate"
     d="M 0 4 L 0 34 L 0 62 L 2 64 L 32 64 L 62 64 L 64 62 L 64 34 L 64 4 L 32 4 L 0 4 z "
     id="path6498" />
  <path
     style="color:#000000;fill:#75d8ff;fill-opacity:1;fill-rule:nonzero;stroke:none;marker:none;visibility:visible;display:inline;overflow:visible;enable-background:accumulate;stroke-width:2.28571415000000000"
     d="M 2 0 L 0 1 L 0 4 L 32 4 L 64 4 L 64 1 L 62 0 L 32 0 L 2 0 z "
     id="path6502" />
  <path
     style="fill:#98e2ff;fill-opacity:1;fill-rule:nonzero"
     d="M 0,3 0,6 2,4 Z"
     id="path4298"
     inkscape:connector-curvature="0"
     sodipodi:nodetypes="cccc" />
  <path
     d="M 64,6 62,4 64,3 z"
     id="path3028"
     style="fill:#4dbdf6;fill-opacity:1"
     inkscape:connector-curvature="0" />
  <g
     id="g3043"
     inkscape:export-filename="folder.png"
     inkscape:export-xdpi="90"
     inkscape:export-ydpi="90"
     transform="translate(-0.62500009,0.082283)" />
  <g
     id="scalable"
     transform="matrix(1.0385892,0,0,1.0385892,1214.7222,1878.8121)"
     inkscape:label="#g3701"
     style="fill:#ffffff" />
  <path
     inkscape:connector-curvature="0"
     id="path3824"
     d="m 20.709075,16.697624 c -0.69615,0.07237 -1.253363,0.829312 -0.799838,1.709687 1.994413,4.162638 3.1784,7.1245 5.245525,11.698788 0.373063,-0.8752 0.59645,-1.481538 1.153275,-2.78545 -2.13485,-4.351988 -2.435112,-6.186188 -4.408475,-9.893038 -0.315487,-0.554087 -0.772775,-0.773275 -1.190487,-0.729987 z m 22.860888,0.153475 c -0.43485,-0.02075 -0.905675,0.256262 -1.190475,0.941237 -2.606775,6.033063 -7.401725,18.240413 -9.542425,23.147872 -1.218801,2.558491 0.961425,3.581991 1.785725,2.17065 2.760137,-5.90975 6.911025,-17.234322 9.933025,-24.454009 0.3759,-0.958325 -0.261125,-1.772638 -0.98585,-1.80575 z m -13.206851,7.799137 c -0.43485,-0.019 -0.868475,0.256263 -1.153287,0.941413 -2.60675,6.032887 -7.4389,18.278684 -9.579613,23.186152 -1.218787,2.5585 0.93935,3.3009 1.878725,1.651909 2.760138,-5.909752 6.836638,-16.753861 9.858638,-23.973736 0.375912,-0.958313 -0.27975,-1.772625 -1.004463,-1.805738 z m 4.371276,1.152663 c -0.434825,-0.019 -0.868463,0.217812 -1.153275,0.902787 -2.606763,6.032888 -3.532651,9.000613 -5.673363,13.907897 -1.218813,2.558666 0.849812,3.44265 1.674112,1.556025 2.760138,-5.90975 3.134988,-7.341275 6.156988,-14.560959 0.3759,-0.958488 -0.27975,-1.772638 -1.004462,-1.80575 z M 57,26.532899 c -4.246762,1.0404 -7.6536,2.873037 -11.495512,5.3786 -1.133238,-0.919 -1.865,-1.6783 -2.771588,-2.631625 -0.29455,0.5603 -1.006162,2.100475 -1.264887,2.516425 0.9481,0.95435 1.347237,1.52965 2.10195,2.093909 -0.908038,0.671525 -0.899325,0.885191 -3.069213,2.862175 0.453313,0.884516 0.699988,1.731766 1.153288,2.593341 1.050075,-1.165266 1.828362,-2.100466 4.09225,-3.649775 3.1309,1.699175 5.793175,3.476625 11.253712,5.033009 l 0,-3.188984 C 54.417388,36.697899 50.643113,35.530049 48.29465,33.832608 50.123563,32.502149 52.58725,31.182536 57,30.125061 l 0,-3.592162 z m -50,0.806725 0,3.03515 c 2.5960635,0.855362 6.376439,2.081675 8.705364,3.76515 C 13.876464,35.470383 11.41275,36.756358 7,37.808999 l 0,3.630634 c 4.2491,-1.042809 7.690825,-2.911509 11.53275,-5.417234 1.133237,0.919175 1.827787,1.716759 2.734387,2.67025 0.294538,-0.5603 1.02475,-2.138925 1.283463,-2.554875 -0.948088,-0.95435 -1.328613,-1.491191 -2.083338,-2.05545 0.90805,-0.671525 0.899338,-0.8852 3.0692,-2.862363 -0.453287,-0.884325 -0.699975,-1.731587 -1.153275,-2.59315 -1.050087,1.16525 -1.865575,2.100463 -4.12945,3.649763 C 15.158864,30.596899 12.347286,28.879961 7,27.339624 z m 31.789438,9.95065 c -0.37305,0.875184 -0.633625,1.443075 -1.19045,2.746975 2.134837,4.352 2.472325,6.22465 4.445662,9.931511 0.841313,1.477741 2.715988,0.428716 1.990338,-0.9797 -1.994425,-4.162652 -3.178413,-7.124511 -5.24555,-11.698786 z"
     style="color:#000000;fill:#ecf6fd;fill-opacity:1;fill-rule:nonzero;stroke:none;marker:none;visibility:visible;display:inline;overflow:visible;enable-background:accumulate" />
</svg>

<svg xmlns="http://www.w3.org/2000/svg" viewBox="0 0 64 64"><g color="#000"><path d="m0 4v30 28l2 2h30 30l2-2v-28-30h-32-32" fill="#27a4ee"/><path d="m2 0l-2 1v3h32 32v-3l-2-1h-30-30" fill="#75d8ff"/></g><path d="m0 3v3l2-2" fill="#98e2ff"/><path d="m64 6l-2-2 2-1z" fill="#4dbdf6"/><path d="m20.709 16.698c-.696.072-1.253.829-.8 1.71 1.994 4.163 3.178 7.125 5.246 11.699.373-.875.596-1.482 1.153-2.785-2.135-4.352-2.435-6.186-4.408-9.893-.315-.554-.773-.773-1.19-.73m22.861.153c-.435-.021-.906.256-1.19.941-2.607 6.03-7.402 18.24-9.542 23.15-1.219 2.558.961 3.582 1.786 2.171 2.76-5.91 6.911-17.234 9.933-24.454.376-.958-.261-1.773-.986-1.806m-13.207 7.799c-.435-.019-.868.256-1.153.941-2.607 6.03-7.439 18.279-9.58 23.19-1.219 2.559.939 3.301 1.879 1.652 2.76-5.91 6.837-16.754 9.859-23.974.376-.958-.28-1.773-1-1.806m4.371 1.153c-.435-.019-.868.218-1.153.903-2.607 6.03-3.533 9-5.673 13.908-1.219 2.559.85 3.443 1.674 1.556 2.76-5.91 3.135-7.341 6.157-14.561.376-.958-.28-1.773-1-1.806m22.266.73c-4.247 1.04-7.654 2.873-11.496 5.379-1.133-.919-1.865-1.678-2.772-2.632-.295.56-1.01 2.1-1.265 2.516.948.954 1.347 1.53 2.102 2.094-.908.672-.899.885-3.069 2.862.453.885.7 1.732 1.153 2.593 1.05-1.165 1.828-2.1 4.092-3.65 3.131 1.699 5.793 3.477 11.254 5.03v-3.189c-2.583-.842-6.357-2.01-8.705-3.707 1.829-1.33 4.293-2.65 8.705-3.708v-3.592m-50 .807v3.035c2.596.855 6.376 2.082 8.705 3.765-1.829 1.33-4.293 2.616-8.705 3.669v3.631c4.249-1.043 7.691-2.912 11.533-5.417 1.133.919 1.828 1.717 2.734 2.67.295-.56 1.025-2.139 1.283-2.555-.948-.954-1.329-1.491-2.083-2.055.908-.672.899-.885 3.069-2.862-.453-.884-.7-1.732-1.153-2.593-1.05 1.165-1.866 2.1-4.129 3.65-3.095-1.68-5.906-3.397-11.254-4.937m31.789 9.951c-.373.875-.634 1.443-1.19 2.747 2.135 4.352 2.472 6.225 4.446 9.932.841 1.478 2.716.429 1.99-.98-1.994-4.163-3.178-7.125-5.246-11.699" fill="#ecf6fd" color="#000"/></svg>
